X: 2
T: Mattinata
T: This Is Our Day
R: waltz
C: Ruggiero Leonca Vallo
Z: John Chambers <jc@trillian.mit.edu> http://trillian.mit.edu/~jc/music/
M: 6/8
L: 1/8
K: D
A \
| "D"def d{ed}cB | "G"dE2 "Em"z2F | "Em"GBd "A7"c{dc}B> C | "D"A3 z2F |
| "B7"FGA F^D>B, | "Em"FE2 z2D | "F#m"CFA "C#7"^G^EC | "F#m"c6- | "A7"c3 z2A |
| "D"def d{ed}cB | "G"dE2 "Em"z2F | "Em"GBd "A7"c{dc}B> C | "D"A3 z2A |
| "Adim"=cBc A2^G/A/ | "A"f3 e2c | AEC "E7"FD^G | "A7"HA6 ||
|: "D"AFA "Bm"B3 | "D"A{BA}FA "Bm"BB2 | "C#7"B^GB "F#m"c2c | "E7"Bcd "A7"e3 | "F#7"gf> c "Bm"c2d |
| "E7"ed> ^G "D"B2A |1 "Bb"d_Bd "D"AFD | "A7"GG> C "D"D2z :|2 "Bb"d_Bd "D"AFd | "A7"gg> c "D"d2z |]
